X:1
T:Title
%%score { 1 | 2 }
L:1/8
Q:1/4=94
M:2/4
K:Ab
V:1 treble nm="Grand Piano"
V:2 treble 
V:1
 c2 dc | c>B B2 | B2 cB | [CA]4 | [FA]2 [EG][DF] | [DF]>[CE] [CE]2 | [=DA]2 [DB][Dc] | B4 | c2 BA | %9
w: W.~J.~Kirkpatrick * *|||||||||
 A>G G2 | d2 cc | B4 | [Ee]2 [Ec][CA] | [=DB]>[DF] [DF]2 | G2 FG | [CA]4 |] %16
w: |||||||
V:2
 [A,E]2 [A,F][K:bass][A,E] | [E,A,E]>[E,G,D] [E,G,D]2 | [E,G,D]2 [E,A,E][E,G,D] | [A,,A,]4 | %4
 [D,A,]2 [D,A,][D,A,] | [A,,A,]>[A,,A,] [A,,A,]2 | [B,,F,]2 [B,,A,][B,,A,] | [E,G,E]4 | %8
 [A,E]2 [A,CE][A,CE] | [B,DE]>[B,DE] [B,DE]2 | [G,B,E]2 [A,E][A,E] | [E,G,E]4 | %12
 [C,A,]2 [C,A,][F,A,] | [B,,F,]>[B,,B,] [B,,B,]2 | [E,B,D]2 [E,B,D][E,D] | [A,,E,]4 |] %16

